src/assets/img/record_exist.svg

<svg width="204" height="137" viewBox="0 0 204 137" fill="none" xmlns="http://www.w3.org/2000/svg">
<g clip-path="url(#clip0_2564_4637)">
<path d="M188.69 119.041L179.408 116.058C157.563 109.045 139.593 109.045 117.761 116.058L102.055 121.1L86.3489 116.058C64.485 109.04 46.5342 109.04 24.6875 116.061L15.3884 119.041C14.6522 119.278 13.8704 119.337 13.1069 119.214C12.3434 119.092 11.6196 118.791 10.9946 118.336C10.3696 117.881 9.86109 117.285 9.5104 116.597C9.15971 115.909 8.97679 115.147 8.97656 114.375V15.1486C8.97951 14.1115 9.3113 13.1021 9.92435 12.265C10.5374 11.428 11.4002 10.8064 12.3889 10.4894L24.6875 6.54248C46.5342 -0.487794 64.485 -0.487794 86.3367 6.53272L102.043 11.5749L117.749 6.53272C139.593 -0.487794 157.549 -0.487794 179.395 6.53272L191.694 10.4894C192.686 10.8056 193.551 11.4281 194.166 12.2673C194.78 13.1064 195.112 14.1187 195.114 15.1583V114.377C195.114 115.151 194.931 115.914 194.58 116.603C194.229 117.293 193.719 117.89 193.092 118.345C192.465 118.8 191.74 119.1 190.975 119.221C190.209 119.342 189.426 119.281 188.69 119.041Z" fill="white" stroke="#2F3645" stroke-width="3" stroke-miterlimit="10"/>
<path d="M102.001 121.103V11.575" stroke="#2F3645" stroke-width="3" stroke-miterlimit="10"/>
<path d="M87.0329 74.2374L84.9469 73.5665C63.2662 66.607 45.4156 66.5533 23.7935 73.408L23.305 73.5665" stroke="#2F3645" stroke-width="3" stroke-miterlimit="10" stroke-linecap="round"/>
<path d="M87.0329 86.4222L84.9469 85.7514C63.2638 78.7918 45.4156 78.7382 23.7935 85.5928L23.305 85.7514" stroke="#2F3645" stroke-width="3" stroke-miterlimit="10" stroke-linecap="round"/>
<path d="M87.0329 98.6069L84.9469 97.936C63.2638 90.9887 45.4156 90.9228 23.7935 97.7775L23.305 97.936" stroke="#2F3645" stroke-width="3" stroke-miterlimit="10" stroke-linecap="round"/>
<path d="M181.486 116.731L188.692 119.042C189.428 119.278 190.21 119.337 190.973 119.215C191.737 119.092 192.46 118.791 193.085 118.336C193.71 117.881 194.218 117.285 194.569 116.597C194.919 115.909 195.102 115.147 195.102 114.375V23.967L199.144 25.1648C201.342 25.8161 202.835 27.7017 202.835 29.8313V129.06C202.835 132.385 199.322 134.744 195.888 133.727L185.817 130.751C162.146 123.737 142.688 123.737 119.019 130.751L102.001 135.793L84.981 130.751C61.3121 123.737 41.8542 123.737 18.1853 130.751L8.1119 133.727C4.69224 134.744 1.1651 132.385 1.1651 129.06V29.8313C1.1651 27.7017 2.65754 25.8161 4.85589 25.1648L8.98147 23.9451V114.377C8.98234 115.149 9.16551 115.909 9.51609 116.597C9.86668 117.285 10.3748 117.88 10.9991 118.334C11.6234 118.789 12.3463 119.09 13.109 119.213C13.8717 119.335 14.6527 119.277 15.3885 119.042L24.6704 116.058C46.5172 109.045 64.4851 109.045 86.3196 116.058L102.026 121.1L112.573 117.715L117.732 116.058C139.576 109.045 157.546 109.045 179.378 116.058L181.486 116.731Z" fill="#E6B9A6" stroke="#2F3645" stroke-width="3" stroke-miterlimit="10"/>
<path d="M39 31V37.4375" stroke="#2F3645" stroke-width="3" stroke-miterlimit="10" stroke-linecap="round"/>
<path d="M70.224 31V37.4375" stroke="#2F3645" stroke-width="3" stroke-miterlimit="10" stroke-linecap="round"/>
<path d="M164.202 51.8002C164.202 48.7382 163.378 45.7325 161.816 43.0974C160.255 40.4623 158.013 38.2944 155.326 36.8204C152.638 35.3465 149.604 34.6205 146.539 34.7185C143.475 34.8164 140.493 35.7347 137.906 37.3773C135.318 39.0198 133.22 41.3264 131.83 44.0559C130.441 46.7854 129.811 49.8375 130.006 52.8932C130.202 55.949 131.216 58.8961 132.943 61.4266C134.669 63.9571 137.044 65.9779 139.82 67.278V70.1345C139.82 71.4931 140.361 72.7961 141.323 73.7568C142.285 74.7175 143.589 75.2572 144.95 75.2572H149.207C150.568 75.2572 151.872 74.7175 152.834 73.7568C153.796 72.7961 154.337 71.4931 154.337 70.1345V67.278C157.284 65.9015 159.778 63.7144 161.525 60.9731C163.273 58.2318 164.201 55.0498 164.202 51.8002Z" fill="#FEC420" stroke="#2F3645" stroke-width="3" stroke-miterlimit="10" stroke-linecap="round"/>
<path d="M150.575 75.2668H143.601C142.746 75.2668 142.053 75.9587 142.053 76.8122C142.053 77.6657 142.746 78.3575 143.601 78.3575H150.575C151.43 78.3575 152.124 77.6657 152.124 76.8122C152.124 75.9587 151.43 75.2668 150.575 75.2668Z" stroke="#2F3645" stroke-width="3" stroke-miterlimit="10" stroke-linecap="round"/>
<path d="M150.575 78.3577H143.601C142.746 78.3577 142.053 79.0495 142.053 79.903C142.053 80.7565 142.746 81.4484 143.601 81.4484H150.575C151.43 81.4484 152.124 80.7565 152.124 79.903C152.124 79.0495 151.43 78.3577 150.575 78.3577Z" stroke="#2F3645" stroke-width="3" stroke-miterlimit="10" stroke-linecap="round"/>
<path d="M150.656 81.4482C150.668 81.9239 150.585 82.3973 150.411 82.8405C150.238 83.2836 149.977 83.6875 149.644 84.0284C149.312 84.3692 148.914 84.6401 148.475 84.8251C148.036 85.0101 147.565 85.1054 147.088 85.1054C146.612 85.1054 146.14 85.0101 145.701 84.8251C145.262 84.6401 144.864 84.3692 144.532 84.0284C144.199 83.6875 143.939 83.2836 143.765 82.8405C143.591 82.3973 143.508 81.9239 143.521 81.4482H150.656Z" stroke="#2F3645" stroke-width="3" stroke-miterlimit="10" stroke-linecap="round"/>
<path d="M142.48 54.7395L145.79 74.2886" stroke="#2F3645" stroke-width="3" stroke-miterlimit="10" stroke-linecap="round"/>
<path d="M151.633 55.3005L148.32 74.8521" stroke="#2F3645" stroke-width="3" stroke-miterlimit="10" stroke-linecap="round"/>
<path d="M173.44 32.7998L168.582 36.3174" stroke="#2F3645" stroke-width="3" stroke-miterlimit="10" stroke-linecap="round"/>
<path d="M175.644 38.5981L170.438 39.7544" stroke="#2F3645" stroke-width="3" stroke-miterlimit="10" stroke-linecap="round"/>
<path d="M168.604 28.9067L165.888 33.4854" stroke="#2F3645" stroke-width="3" stroke-miterlimit="10" stroke-linecap="round"/>
<path d="M121.449 32.7998L126.308 36.3174" stroke="#2F3645" stroke-width="3" stroke-miterlimit="10" stroke-linecap="round"/>
<path d="M119.244 38.5981L124.449 39.7544" stroke="#2F3645" stroke-width="3" stroke-miterlimit="10" stroke-linecap="round"/>
<path d="M126.283 28.9067L128.999 33.4854" stroke="#2F3645" stroke-width="3" stroke-miterlimit="10" stroke-linecap="round"/>
<path d="M63.0207 35.4909C63.0207 34.6776 62.6972 33.8977 62.1214 33.3227C61.5456 32.7476 60.7647 32.4246 59.9503 32.4246H49.176C48.7729 32.4246 48.3737 32.5039 48.0013 32.658C47.629 32.8121 47.2907 33.038 47.0057 33.3228C46.7208 33.6076 46.4949 33.9456 46.3409 34.3176C46.1868 34.6896 46.1077 35.0883 46.108 35.4909C46.108 38.7108 49.9063 41.3234 54.5912 41.3234C59.2762 41.3234 63.0769 38.7108 63.0769 35.4909" stroke="#2F3645" stroke-width="3" stroke-miterlimit="10" stroke-linecap="round"/>
</g>
<defs>
<clipPath id="clip0_2564_4637">
<rect width="204" height="137" fill="white"/>
</clipPath>
</defs>
</svg>

<svg width="204" height="137" fill="none" xmlns="http://www.w3.org/2000/svg"><g clip-path="url(#a)" stroke="#2F3645" stroke-width="3" stroke-miterlimit="10"><path d="m188.69 119.041-9.282-2.983c-21.845-7.013-39.815-7.013-61.647 0l-15.706 5.042-15.706-5.042c-21.864-7.018-39.815-7.018-61.662.003l-9.299 2.98a4.901 4.901 0 0 1-2.281.173 4.904 4.904 0 0 1-4.13-4.839V15.149a4.904 4.904 0 0 1 3.412-4.66l12.299-3.947c21.846-7.03 39.797-7.03 61.649-.01l15.706 5.043 15.706-5.042c21.844-7.02 39.8-7.02 61.646 0l12.299 3.956a4.915 4.915 0 0 1 3.42 4.67v99.218a4.904 4.904 0 0 1-6.424 4.664z" fill="#fff"/><path d="M102.001 121.103V11.575"/><path d="m87.033 74.237-2.086-.67c-21.68-6.96-39.531-7.014-61.154-.159l-.488.159M87.033 86.422l-2.086-.67c-21.683-6.96-39.531-7.014-61.154-.16l-.488.16M87.033 98.607l-2.086-.671c-21.683-6.947-39.531-7.013-61.154-.159l-.488.159" stroke-linecap="round"/><path d="m181.486 116.731 7.206 2.311a4.914 4.914 0 0 0 5.877-2.445c.35-.688.533-1.45.533-2.222V23.967l4.042 1.198c2.198.651 3.691 2.537 3.691 4.666v99.229c0 3.325-3.513 5.684-6.947 4.667l-10.071-2.976c-23.671-7.014-43.129-7.014-66.798 0l-17.018 5.042-17.02-5.042c-23.669-7.014-43.127-7.014-66.796 0l-10.073 2.976c-3.42 1.017-6.947-1.342-6.947-4.667V29.831c0-2.13 1.493-4.015 3.69-4.666l4.126-1.22v90.432A4.9 4.9 0 0 0 11 118.334a4.909 4.909 0 0 0 4.39.708l9.281-2.984c21.847-7.013 39.815-7.013 61.65 0l15.706 5.042 10.547-3.385 5.159-1.657c21.844-7.013 39.814-7.013 61.646 0l2.108.673z" fill="#E6B9A6"/><path d="M39 31v6.438M70.224 31v6.438" stroke-linecap="round"/><path d="M164.202 51.8c0-3.062-.824-6.067-2.386-8.703a17.104 17.104 0 0 0-6.49-6.277 17.136 17.136 0 0 0-17.42.557 17.086 17.086 0 0 0-7.9 15.516 17.105 17.105 0 0 0 9.814 14.385v2.857a5.12 5.12 0 0 0 1.503 3.622c.962.96 2.266 1.5 3.627 1.5h4.257c1.361 0 2.665-.54 3.627-1.5a5.12 5.12 0 0 0 1.503-3.623v-2.856a17.109 17.109 0 0 0 7.188-6.305 17.07 17.07 0 0 0 2.677-9.173z" fill="#FEC420" stroke-linecap="round"/><path d="M150.575 75.267h-6.974c-.855 0-1.548.692-1.548 1.545 0 .854.693 1.546 1.548 1.546h6.974c.855 0 1.549-.692 1.549-1.546 0-.853-.694-1.545-1.549-1.545z" stroke-linecap="round"/><path d="M150.575 78.358h-6.974a1.547 1.547 0 1 0 0 3.09h6.974c.855 0 1.549-.691 1.549-1.545s-.694-1.545-1.549-1.545z" stroke-linecap="round"/><path d="M150.656 81.448a3.564 3.564 0 0 1-2.181 3.377 3.57 3.57 0 0 1-4.954-3.377h7.135zM142.48 54.74l3.31 19.549M151.633 55.3l-3.313 19.552M173.44 32.8l-4.858 3.517M175.644 38.598l-5.206 1.156M168.604 28.907l-2.716 4.578M121.449 32.8l4.859 3.517M119.244 38.598l5.205 1.156M126.283 28.907l2.716 4.578M63.02 35.49a3.072 3.072 0 0 0-3.07-3.066H49.176a3.072 3.072 0 0 0-2.835 1.894 3.06 3.06 0 0 0-.233 1.173c0 3.22 3.798 5.832 8.483 5.832 4.685 0 8.486-2.612 8.486-5.832" stroke-linecap="round"/></g><defs><clipPath id="a"><path fill="#fff" d="M0 0h204v137H0z"/></clipPath></defs></svg>
